X: 0
T: Once In Bethlehem Of Judah
Z: J. H. Maunder
Z: Copyright © 2003 by Douglas D. Anderson
Z: Released To The Public Domain
L: 1/4
M: 6/8
Q: 1/4=70
V: P1 name="Staff"
%%MIDI program 1 19
K: Eb
[V: P1]  G G/ | G G/ (A/G/) F/ | B G/ G G/ | G G/ (A/G/) F/ | B3/ B B/ | B G/ B B/ | (B/=A/) G/ (A/B/) c/ | d B/ d A/ | (d3/ d) B/ |"^Chorus" e d/ (c/d/) e/ | B G/ G B/ | (B/A/) G/ (F/G/) A/ | (B3/ B) B/ | c c/ (d/c/) d/ | e3/ d c/ | (B/e/) G/ c (d3/ e/) | e3|]
w: Still He stands and pleads_ in hea- ven, For us weak and sin-_ de filed; God, who is a man for ev-_ er, Je-_ sus, who was once a child._ O Sav- iour, gen-_ tle Sav- iour, Hear Thy joy-_ ful child-_ ren sing,_ The God of our_ sal- va tion, The Child_ that is our_ King.

